X:211
T: WER GLEICHET UNS TURNERN
N: F0359
O: Europa, Mitteleuropa, Deutschland
R: Jugend - Lied, Turner - Lied
M: 3/8
L: 1/16
K: F
C2 | F3EF2 | G3FG2 | A2F2z2 | z4
FG | A4A2 | B3AB2 | c3dcB | A4
C2 | F3EF2 | G3FG2 | A2F2z2 | z4
FG | A4A2 | B3AB2 | c3dcB | A4
FA | c2c2c2 | A3GA2 | B2B2B2 | G3F
G2 | A2A2G2 | A4cB | A2A2G2 | F4
FA | c2c2c2 | A3GA2 | B2B2B2 | G3F
G2 | A2A2G2 | A4cB | A2A2G2 | F4

